X:1
T:Suteki Da Ne
T:Final Fantasy X
T: Nobuo Uematsu Arrannged by Arthur Morrison
%%score 1 2 3 4
L:1/8
Q:1/4=90
M:4/4
K:F
V:1 treble nm="Violin" snm="Vln."
V:2 treble nm="Violin" snm="Vln."
V:3 alto nm="Viola" snm="Vla."
V:4 bass nm="Violoncello" snm="Vlc."
V:1
 AffG AeFe | dEF c3 E2 |!mf! A3 A e3 e | A6 (GA) | (D2 A2){/GA} G2 (EC) | A2 (AB) A4 | %6
 (d2- (3d/c/B/d) (e3 g) | (f2 e2 d2) (fg) | a8 | E2 A2{/g} (fedc) | d8- | d8 | CD E(E/F/) E2 FG | %13
 (GA)A(A G2) z2 | GAGF E2 z2 | (EF)ED C2 z2 | CD E(E/F/) E2 (FG) | (GA)A(A G2) z2 | %18
 (GA)GF (DE) C2 | (CD) D2 z4 | CD E(E/F/) E2 (FG) | (GA) A/B/(A G2) z2 | (GA)GF E2 z2 | %23
 (EF)E z z4 | CD E(E/F/) E2 (FG) | (GA) A/B/(A G2) z2 | (GA)GF (DE) C2 | (CD) (f2 e2 f2) | %28
 f>e- ed- d/c/-c FG | (GA)=Bc G2 z2 | (GA)GF (DF)FG | (GA)=Bc (FG)FE | D2 z2 z2 FG | %33
 (GA)=Bc G2 z2 | (GA)GF (DF)FG | (GA) c2{/d} e2 c2 | d4 z4 | z2 cd c2 B2 | A2 z2 z4 | z2 Bc A2 E2 | %40
 DF F2 z4 | z2 GA G2 F2 | GA C2 z4 | z2 GA d2 c2 | d2 (A,2- A,B,) (3(CDE) | %45
 (AE/4F/4E/4D/4 E/) z/ (E/F/ G)(A/^G/ A2- | A)A (3(dcA) (3(Bcd) (3(efg | a6) (d/e/a/b/) | %48
 a2 (c'2- (3c'ba) Tb3/2(a/4b/4) | Ta(g/a/) Tg(f/g/) Tf(e/d/ e/d/-d) | %50
 z (G,/B,/ D/G/B/d/ E/G/c/e/) (3(aga) | (A/4B/4d/4f/4a/4b/4a/4f/4 e/f/g/a/ c'2) c'{/e'}(f'- | %52
 (3f'e'd' d'6- | d'8) | d8- | d8 | CD E(E/F/) E2 (FG) | (GA) A/B/(A G2) z2 | (GA)GF E2 z2 | %59
 (EF)ED C2 z2 | CD E(E/F/) E2 (FG) | (GA) A/B/(A G2) z2 | (GA)GF (DE) C2 | (CD) D4 z2 | %64
 EF G(G/A/) G2 (AB) | cc c/d/c c2 z2 | (GA)GF E2 z2 | (EF)ED C2 z2 | CD E(E/F/) E2 (FG) | %69
 (AA) A/B/(A G2) z2 | (GA)GF (DE) C2 | CD (f2 e2 f2) | f>e- ed- d/c/-c FG | (GA)=Bc G2 z2 | %74
 (GA)GF (DF)FG | (GA)=Bc (FG)FE | D2 z2 z2 FG | (GA)=Bc G2 z2 | (GA)GF (DF)FG | GA c2{/d} e2 c2 | %80
 d4 z4 | z2 (cd) c2 B2 | A2 z2 z4 | z2 (Bc) A2 E2 | (DF) F2 z4 | z2 (GA) G2 F2 | GA C2 z4 | %87
 z2 GA d2 c2 | d(GAd f3) a | (g2 GB) e3 e | z (e/f/ e2) z (e/f/ g/f/e/A/- | %91
 A/e/f/e/- e4) z (d/4e/4f/4g/4) | a8- | a8- | !fermata!a4 !fermata!z4 | z8 |] %96
V:2
 ABBG ABFC | DE F4 C2 |!mp! A3 A e3 e | A6 (GA) | (D2 A2){/GA} G2 (EC) | A2 (AB) A4 | %6
 (d2- (3d/c/B/d) (e3 g) | (f2 e2 d2) (fg) | f8 | C8 | z FDF F/E/D AE | A,AdD F/E/A dA | %12
 CD E(E/F/) E2 FG | (GF)F(F E2) z2 | (GA)GF E2 z2 | (CD)CD C2 z2 | CD E(E/F/) E2 (FG) | %17
 (GF)F(F E2) z2 | (GA)GF (DE) C2 | (CD) D2 z4 | (FEAD) (EG,CG,) | (FA,CA,) (EFGG,) | %22
 (FA,CA,) (EG,CG,) | (ADFA) (EcAE) | (FEAD) (EG,CG,) | (FA,CA,) (EFGG,) | (FA,FA,) (GG,EG,) | %27
 D2 (f2 e2 f2) | d>c- cB- B/A/-A AG | F4 (E2- ED/E/) | F4 (B2- BG/B/) | c4- c(d-dc) | %32
 A2 (FG/A/) D4 | (C2- C/G,/A,/C/ E4) | (F/E/D- DA) A4- | A(FAc- cAce) | (f/e/d- d)a a4- | a6 z2 | %38
 z4 E2- EE | G8 | z4 (A2- AG/A/ | d8) | (c4- cAGA) | E4 z4 | (FA,FA,) (EA,EA,) | %45
 (EA,EA,) (FA,FA,) | (GB,GB,) (GCGC) | (ACAA,) (^cEde) | (fAdf) (eGce) | (eAeA) (fA f)F/G/ | %50
 (FB,FB,) (EA,EA,) | (ADAD) (cEcE) | (dDeE) (dEdg) | ad-dg eE e/f/e | (FA,FA,) (GA,EA,) | %55
 F2 A/E/F (dFAD) | (FA,AD) (GCEG,) | (FA,AC) (GCcE) | (FA,AC) (EFAC) | (FA,EF) EE c2 | (A4 G4 | %61
 F4 E3) (D/E/ | F2- F/G/A/f/ e4) | d8 | CD E(E/F/) E2 (FG) | AA A/B/A G2 z2 | A4 (3(c2 d2 e2) | %67
 (3(f2 g2 a2) (c'3 a/c'/) | (d'4 c4) | (c2 f2) (g3 a/c'/) | (d'a'- a'6) | D2 (d2 c2 e2) | %72
 d>c- cB- B/A/-A AG | F4 (E2- ED/E/) | F4 B2- B(G/B/) | c4- c(d-dc) | A2 (FG/A/) D4 | %77
 (C2- C/G,/A,/C/ E4) | (F/E/D- DA) A4- | A(FAc- cAce) | (f/e/d- d)a a4- | a6 z2 | z4 (E2- EE | %83
 G8) | z4 (A2- AG/A/ | d8) | c4 c(AGA) | E4 z2 A2 | (FA,FA,) (FA,FA,) | (GB,GB,) (BAG)B, | %90
 (EA,EA,) (DG,DG,) | (GCGC) E4 | AffG AeFc | dEFc BDEA- | !fermata!A4 z2 F<!fermata!A- | A4 z4 |] %96
V:3
 z8 | z8 |!p! FA,DC z G,CG, | DA,DF EA,CA, | DA,FA, EG,CG, | FA,CF DA,^CA, | DFDA GCEC | %7
 FA,EA, DA,DF | G,DFD FA,B,F | A,8 | z DDE F/E/D AE | A,EFD F/E/D FD | (FEAF) (EG,CG,) | %13
 (FA,CA,) (EFGG,) | (FA,CA,) (EG,cG,) | (ADFD EcAE) | (FEAF) (EG,CG,) | (FA,CA,) (EG,CG,) | %18
 (FA,CA,) (GG,EG,) | (DcGc) (=BDGD) | (D,4 C,4) | F,4 G,2 A,B, | C4 C2 G2 | F4 (FEDC) | %24
 D4 (C2- CG,/B,/) | (A,2- A,G,/F,/ E,4) | (A,4 C4) | (DFAF) (GEcG) | F>E- ED- D/C/-C A,G, | %29
 (CA,FC) (CG,EG,) | (DA,FA,) (FDBD) | (CA,FC) (G,CG,C) | (DA,FA,) (DA,FA,) | (CA,AC) (ECGC) | %34
 (DA,FA,) (FDAD) | (CA,AC) (cEAC) | d/c/B- Bf f4- | f6 z2 | (CEAE) (CEAE) | (CEGC) (ECGC) | %40
 (A,B,DB,) (A,B,FB,) | (DB,FB,) (DB,FB,) | (EA,CA,) (EA,CA,) | C4 z4 | (DA,DA,) (CA,CA,) | %45
 (CA,CA,) (DA,DA,) | (DB,DB,) (ECEC) | (FCFA,) (AEA^c) | (dFAd) (cEGc) | (cAcA) (dA d)D/E/ | %50
 (DB,DB,) (CA,CA,) | (FDFD) (AEAE) | (FDcE) (BEBg) | fd A2 BE B2 | (DA,DA,) EA,CA, | %55
 (A,D) F/E/F (FDFA,) | (DA,FD) (ECCG,) | (CA,FC) (ECEC) | (CA,FC) (CDEC) | (DA,CD) (EcAE) | %60
 (FDFA,) (ECEG,) | (CA,CA,) (CG,CG,) | (CA,AC) (GCEG,) | (cDGc) (=BDGD) | (FDAD) (ECdc) | %65
 (FA,FA,) (GG,cC) | (FA,FA,) (ECGE) | (ADFD) (EG,EC) | (AFAF) (GCEG,) | (FA,FA,) (EG,EC) | %70
 (FA,CA,) (GCCG,) | (DFAF) (GEcG) | F>E- ED- D/C/-C A,G, | (CA,FC) (CG,EG,) | (DA,FA,) (FDBD) | %75
 (CA,FC) (G,CG,C) | (DA,FA,) (DA,FA,) | (CA,AC) (ECGC) | (DA,FA,) (FDAD) | (CA,AC) (cEAC) | %80
 (d/c/B- B)f f4- | f6 z2 | (CEAE) (CEAE) | (CEGC) (ECGC) | (A,B,DB,) (A,B,FB,) | %85
 (DB,FB,) (DB,FB,) | (EA,CA,) (EA,CA,) | C4 z4 | (DA,DA,) (DA,DA,) | (DB,DB,) (GFD)B, | %90
 (CA,CA,) (B,G,B,G,) | (ECEC) C4 | ABBG ABFC | dEFc FDE-E- | !fermata!E4 z2 D<!fermata!F- | %95
 F4 z4 |] %96
V:4
 D2 C2 B,2 A,2 | G,2 D2- D2 A,,2 | (D,4 C,4) | (B,,4 A,,4) | (D,4 C,4) | (F,4 A,,4) | (B,,4 C,4) | %7
 (A,,4 D,4) | G,,8 | A,,8 | D,8 | D,8 | D,4 C,4 | F,4 E,4 | F,4 C,4 | F,4 E,4 | D,4 C,4 | F,4 E,4 | %18
 F,4 C,4 | G,4 G,4 | D,4 C,4 | F,4 E,4 | F,4 C,4 | D,4 A,,4 | D,4 C,4 | F,4 E,4 | F,4 C,4 | %27
 D,,2- D,,(D,, D,,)G,,/A,,/- A,,/D,/-D, | (F/D/A,/)(E/ C/G,/)(D/B,/ F,/)(C/A,/E,/) F,E, | %29
 F,3 F, (C,3 B,,/C,/) | D,3 D, B,3 F,/B,/ | F,3 F, C,3 B,,/C,/ | B,,3 B,, B,,2 B,,2 | %33
 F,,3 F,, C,3 A,,/C,/ | D,3 D, B,,4 | F,,3 G,, A,,4 | B,,3 B,, B,,2 B,,F,, | B,,6 z2 | %38
 A,,3 A,, A,,3 D,,/E,,/ | A,,3 A,, A,,3 E,,/F,,/ | B,,3 B,, B,,3 E,,/F,,/ | %41
 B,,3 B,, B,,3 D,,/E,,/ | A,,3 A,, A,,2 D,,E,, | A,,4 A,,2 A,,2 | B,,3 B,, C,4 | A,,3 A,, D,4 | %46
 G,,3 G,, C,4 | F,,2 F,,G,, A,,2 B,,^C, | B,,3 B,, C,2- C,/A,,/C, | A,,3 C, D,2- D,/A,,/D, | %50
 G,,2- G,,<G,, A,,2 A,,A,, | B,,4 C,3 C, | D,4 G,,/D,/E,/F,/ E,2 | D,2- D,G,,/A,,/ D,,2 A,,2 | %54
 [D,,D,]4 D,4 | D,4 D,4 | D,4 C,4 | F,4 E,4 | F,4 C,4 | D,4 A,,4 | D,4 C,4 | F,4 E,4 | F,4 C,4 | %63
 G,4 G,4 | D,4 C,4 | F,4 E,4 | F,4 C,4 | D,4 A,,4 | D,4 C,4 | F,4 E,4 | F,4 C,4 | %71
 D,,2- D,,D,,- D,,G,,/A,,/- A,,/D,/-D, | (F/D/A,/)(E/ C/G,/)(D/B,/ F,/)(C/A,/E,/) F,E, | %73
 F,3 F, C,3 B,,/C,/ | D,3 D, B,3 (F,/B,/) | F,3 F, C,3 B,,/C,/ | B,,3 B,, B,,2 B,,2 | %77
 F,,3 F,, C,3 A,,/C,/ | D,3 D, B,,4 | F,,3 G,, A,,4 | B,,3 B,, B,,2 B,,F,, | B,,6 z2 | %82
 A,,3 A,, A,,3 D,,/E,,/ | A,,3 A,, A,,3 E,,/F,,/ | B,,3 B,, B,,3 E,,/F,,/ | %85
 B,,3 B,, B,,3 (D,,/E,,/) | A,,3 A,, A,,2 D,,E,, | A,,4 A,,2 A,,2 | B,,3 B,, B,,4 | G,,3 G,, G,,4 | %90
 D,,3 D,, D,,3 A,,, | D,,3 A,, D,4 | D2 C2 B,2 A,2 | G,2 B,2 A,,4- | %94
 !fermata!A,,4 D,/A,/D/E/- !fermata!E2- | E4 z4 |] %96

